svgs/sharp-regular/person-cane.svg

<svg xmlns="http://www.w3.org/2000/svg" viewBox="0 0 448 512"><!--! Font Awesome Pro 6.6.0 by @fontawesome - https://fontawesome.com License - https://fontawesome.com/license (Commercial License) Copyright 2024 Fonticons, Inc. --><path d="M224 96a48 48 0 1 0 0-96 48 48 0 1 0 0 96zm-91.1 32l-14 0L112 140.2l-76.9 136 41.8 23.6L128 209.5 128 488l0 24 48 0 0-24 0-136 32 0 0 136 0 24 48 0 0-24 0-273.8 61.6 73.3 15.4 18.4 36.7-30.9-15.4-18.4-100.9-120-7.2-8.6-11.2 0-102.2 0zM208 176l0 128-32 0 0-128 32 0zM360 368c4.4 0 8 3.6 8 8l0 112 0 24 48 0 0-24 0-112c0-30.9-25.1-56-56-56s-56 25.1-56 56l0 8 0 24 48 0 0-24 0-8c0-4.4 3.6-8 8-8z"/></svg>

<svg xmlns="http://www.w3.org/2000/svg" viewBox="0 0 448 512"><!--! Font Awesome Pro 6.4.2 by @fontawesome - https://fontawesome.com License - https://fontawesome.com/license (Commercial License) Copyright 2023 Fonticons, Inc. --><path d="M224 96a48 48 0 1 0 0-96 48 48 0 1 0 0 96zm-91.1 32h-14L112 140.2l-76.9 136 41.8 23.6L128 209.5V488v24h48V488 352h32V488v24h48V488 214.2l61.6 73.3 15.4 18.4 36.7-30.9-15.4-18.4-100.9-120-7.2-8.6H235.1 132.9zM208 176V304H176V176h32zM360 368c4.4 0 8 3.6 8 8V488v24h48V488 376c0-30.9-25.1-56-56-56s-56 25.1-56 56v8 24h48V384v-8c0-4.4 3.6-8 8-8z"/></svg>
